!!!SOCIAL_FUNCTION:	cochiti
!!!PDT:	1957
!!!OTL: No_62_Buffalo_Dance_Song_(c).krn
!!!LING_GROUP: Keresan
!!!LANG: Tone
!!!REG: Southwest
**kern
*staff1
=1-
*clefF4
*k[f#]
*M2/4
4G\
4G\
=2
4G\
4G\
=3
*M3/4
4G\
4G\
8G\
8r
=4!|:
*M2/4
4d\
4e\
=5
4..d\
16G\
=6
*M3/4
4d\
4e\
4d\
=7
*M2/4
4c\
8.c\L
16G\Jk
=8
4c\
8.c\L
16G\Jk
=9
4G\
8.G\L
16D\Jk
=10
8G\L
8E\J
8.D\L
16D\Jk
=11
4D\
8D\
8r
=12
*M3/4
8D\L
8D\J
4D\
4D\
=13
4D\
8D\
8r
4r
=14
4D\
4D\
4D\
=15:|!
=
4D\
4D\
8D\
16r
16B\
=16!|:
*M2/4
4d\
4d\
=17
8B\L
8G\J
8G\L
8G\J
=18
*M3/4
4G\
4G\
8.r
16d\
=19
4e\
4e\
8d\L
8A\J
=20
4d\
4d\
=21
8B\L
8G\J
8G\L
8G\J
=22
*M3/4
4G\
4G\
8.r
16A\
=23
4B\
4B\
8A\L
8G\J
=24
*M2/4
4A\
8A\
8r
=25
*M3/4
8G\L
8D\J
8G\L
8D\J
8D\L
8D\J
=26
4D\
4D\
8.r
16d\
=27:|!
4D\
8D\
8r
4D\
=28
2D\
4D\
=29
2D\
4r
=30
*M2/4
4r
4G\
=31
2A\
=32
2e\
=33
*M3/4
4d\
4e\
4d\
=34
*M2/4
2d\
=35
4d\
4r
=36
*M4/4
4A\
8B\L
8A\J
4G\
4G\
=37
*M2/4
2D\
=38
2G\
=39
*M3/4
4G\
4r
4A\
=40
*M2/4
2B\
=41
2e\
=42
*M3/4
4d\
4e\
4d\
=43
*M2/4
2d\
=44
4d\
4r
=45
4A\
8B\L
8A\J
=46
4G\
4G\
=47
2G\
=48
2G\
=49
*M3/4
4G\
4r
4f#\
=50!|:
*M2/4
2g\
=51
2a\
=52
*M3/4
4g\
4a\
4e\
=53
*M2/4
2e\
=54
2e\
=55
*M3/4
4e\
4r
4g\
=56
*M2/4
2d\
=57
2e\
=58
*M3/4
4d\
4e\
4B\
=59
*M2/4
2G\
=60
2G\
=61
4G\
4r
=62
4A\
4A\
=63
*M3/4
4A\
4G\
4G\
=64
*M2/4
4A\
4A\
=65
*M3/4
4E\
4E\
4r
=66
!!pagebreak:default
*M2/4
4G\
4E\
=67
*M4/4
4G\
4G\
2G\
=68
*M2/4
2G\
=69
*M3/4
2G\
4f#\
=70:|!
*M2/4
4G\
4r
=71
2G\
=72
[2G\
=73
2G\]
=74
4..G\
16G\
=75
8G\
8r
4r
==
*-
